X:1
T:Title
%%score { ( 1 2 ) | ( 3 4 ) }
L:1/8
Q:1/4=110
M:12/8
K:Ab
V:1 treble nm="Grand Piano"
V:2 treble 
V:3 bass 
V:4 bass 
V:1
 z6 [DB]3[K:bass][K:treble] z3 | [CA]2 [DB] [CA]2 [CF] .[DG]6 | E3 d2 =A c3 B3 | %3
 [=DF]2 [DF] [DG]2 [DA] .[_DB]6 | [CE]3 [Ec]2 [CG] [DB]3 [A,CA]3 | [CA]2 [CA] [DG]2 [E_G] .[DF]6 | %6
 [DF]3 [Fe]2 [Fd] [Ec]3 [A,E]3 | %7
 [A,=DF]2 [B,DA] [B,_DA]2 [B,DG] .[A,CA]6[Q:1/4=108][Q:1/4=106][Q:1/4=104][Q:1/4=103][Q:1/4=101][Q:1/4=99][Q:1/4=98][Q:1/4=96][Q:1/4=94][Q:1/4=92][Q:1/4=91][Q:1/4=89][Q:1/4=87][Q:1/4=86][Q:1/4=84] |] %8
V:2
 [CE]3 [Ec]2 [CG] z[K:bass] F,G,[K:treble] [CA]3 | x12 | x12 | x12 | x12 | x12 | x12 | x12 |] %8
V:3
 [A,,A,]3 [A,,E,]2 [A,,E,] .[A,,E,]3 [A,,A,]3 | [A,,A,]2 [A,,A,] [A,,E,]2 [A,,E,] .[B,,E,]6 | %2
 [E,G,D]3 [E,G,E]2 [E,_G,C] [E,=G,D]3 [E,G,D]3 | [B,,A,]2 [B,,A,] [B,,F,]2 [B,,F,] .[E,G,]6 | %4
 [A,,E,]3 [A,,E,]2 [A,,E,] E,F,G, A,,3 | [A,,E,]2 [A,,E,] [B,,E,]2 [C,A,] .[D,A,]6 | %6
 [D,A,]3 [D,A,]2 [D,A,] [E,A,]3 C,3 | B,,2 B,, E,2 E, .A,,6 |] %8
V:4
 x12 | x12 | x12 | x12 | z6 A,,3 z3 | x12 | x12 | x12 |] %8

